X: 14896
T: Gatehouse Maid, The
R: reel
M: 4/4
K: Gmajor
|:G2 BG E2 AG|FDFA dcBA|GABG EcAG|FDEF G3D|
G2 BG E2 AG|FDFA dcBA|GABG EcAG|FDEF G3 A:|
|:BddB cdeg|dedc BGGA|BddB cd (3efg|dcBA G3 A|
BddB cdeg|dedc BGGA|Bdef gfge|dcBA GFED:|

